!!!COM: Schiørring, Niels
!!!CDT: 1743-1798
!!!OPR@@DA: Choral-Bog
!!!ONM: 45
!!!OTL@@DA: Jeg takker dig ret hiertelig
**kern	**fb	**kern	**kern	**kern	**kern	**kern	**kern	**kern
*part6	*part6	*part6	*part5	*part5	*part4	*part3	*part2	*part1
*staff8	*	*staff7	*staff6	*staff5	*staff4	*staff3	*staff2	*staff1
*clefF4	*	*clefC1	*clefF4	*clefC1	*clefF4	*clefC4	*clefC3	*clefC1
*k[b-]	*	*k[b-]	*k[b-]	*k[b-]	*k[b-]	*k[b-]	*k[b-]	*k[b-]
*F:	*	*F:	*F:	*F:	*F:	*F:	*F:	*F:
*M3/2	*	*M3/2	*M3/2	*M3/2	*M3/2	*M3/2	*M3/2	*M3/2
*	*	*	*^	*^	*	*	*	*
2F	.	2f	2A	2F	2f	2c	2F	2A	2c	2f
=1	=1	=1	=1	=1	=1	=1	=1	=1	=1	=1
1A	6	1f	1c	1A	1f	1c	1A	1c	1c	1f
2F	.	2f	2A	2F	2f	2c	2F	2A	2c	2f
=2	=2	=2	=2	=2	=2	=2	=2	=2	=2	=2
1D	6	1b-	1F	1D	1b-	1f	1D	1F	1f	1b-
2E	6	2g	2G	2E	2g	2c	2E	2c	2g	2g
=3	=3	=3	=3	=3	=3	=3	=3	=3	=3	=3
1F	.	1a	1F	1F	1a	1c	1F	1c	1f	1a
2D	6	2b-	2F	2D	2b-	2f	2D	2d	2f	2b-
=4	=4	=4	=4	=4	=4	=4	=4	=4	=4	=4
1AA	6	1cc	1A	1AA	1cc	1f	1AA	1c	1f	1cc
2E-X	2	2a	2c	2E-X	2a	2f	2E-X	2c	2f	2a
=5	=5	=5	=5	=5	=5	=5	=5	=5	=5	=5
1D	6	1b-	1B-	1D	1b-	1f	1D	1B-	1f	1b-
2C	6 -	2cc	2A	2C	2cc	2e-X	2C	2A	2e-X	2cc
=6	=6	=6	=6	=6	=6	=6	=6	=6	=6	=6
1BB-	.	1dd	1B-	1BB-	1dd	1f	1BB-	1B-	1f	1dd
2G	.	2b-	2B-	2G	2b-	2d	2G	2B-	2d	2b-
=7	=7	=7	=7	=7	=7	=7	=7	=7	=7	=7
1E-X	6 5	1.cc	1B-	1E-X	1.cc	1g	(1E-X	(1B-	(1g	1.cc
2F	.	.	2A	2F	.	2f	2F)	2A)	2f)	.
=8	=8	=8	=8	=8	=8	=8	=8	=8	=8	=8
*	*	*	*	*	*	*^	*	*	*	*
1B-	.	1b-	1B-	1BB-	1b-	1f	1d\	1B-	1B-	1d	1b-
2Eni	6	2cc	2G	2Eni	2cc	2g	2c\	2Eni	2G	2g	2cc
*	*	*	*	*	*	*v	*v	*	*	*	*
=9	=9	=9	=9	=9	=9	=9	=9	=9	=9	=9
1F	.	1a	1c	1F	1a	1f	1F	1c	1f	1a
2AA	6	2cc	2ryy@	2AA	2c	2f	2AA	2c	2f	2cc
=10	=10	=10	=10	=10	=10	=10	=10	=10	=10	=10
1BB-	.	1dd	1B-	1BB-	1dd	1f	1BB-	1B-	1f	1dd
2F	.	2cc	2A	2F	2cc	2f	2F	2A	2f	2cc
=11	=11	=11	=11	=11	=11	=11	=11	=11	=11	=11
1G	.	1b-	1B-	1G	1b-	1d	1G	1B-	1d	1b-
*	*	*	*	*	*	*^	*	*	*	*
2B-	2	2g	2c	2B-	2g	[2g	2e\	2B-	2c	4e	2g
.	.	.	.	.	.	.	.	.	.	[4g	.
=12	=12	=12	=12	=12	=12	=12	=12	=12	=12	=12	=12
1A	7	1cc	1c	1A	1cc	2g]	1c\	1A	1c	(4g]	1cc
.	.	.	.	.	.	.	.	.	.	4e)	.
*	*	*	*	*	*	*v	*v	*	*	*	*
2F	6	2cc	2c	2F	2cc	2a	2F	2A	2f	2cc
=13	=13	=13	=13	=13	=13	=13	=13	=13	=13	=13
1E	6	1cc	1c	1E	1cc	1g	1E	1c	1g	1cc
2F	.	2a	2c	2F	2a	2f	2F	2c	2f	2a
=14	=14	=14	=14	=14	=14	=14	=14	=14	=14	=14
2D	6	1b-	2ryy@	2D	2d	2f	(2D	(2d	(2f	1b-
2E	5	.	2ryy@	2E	2c	2g	2E)	2c)	2g)	.
*	*	*	*	*	*	*^	*	*	*	*
2F	.	2a	2F	2F	2a	2f	2c\	2F	2c	2f	2a
=15	=15	=15	=15	=15	=15	=15	=15	=15	=15	=15	=15
2BB-	6 5	1.g	1F	2BB-	1.g	2d	1.r	(2BB-	(2d	(1f	1.g
1C	4	.	.	1C	.	1c	.	1C)	1c)	.	.
=16	=16	=16	=16	=16	=16	=16	=16	=16	=16	=16	=16
*	*	*	*	*	*	*	*	*^	*	*	*
1F	3	1f	1F	1FF	1f	1c	1A\	1F	1FF	1A	1f	1f
*	*	*	*v	*v	*	*	*	*v	*v	*	*	*
*	*	*	*	*v	*v	*v	*	*	*	*
==	==	==	==	==	==	==	==	==
*-	*-	*-	*-	*-	*-	*-	*-	*-
!!!system-decoration: {(s1,s2,s3,s4)}{(s5,s6)}{(s7,s8)}
!!!RDF**kern: i = editorial accidental
!!!AGN: chorale
!!!EED: Derek Remeš
!!!EED2: Victor Phan
!!!END: 2023/11/28
!!!ENC: Wolfgang Drescher
!!!EEV: 2023/11/29
!!!title: @{ONM}. @{OTL}